unite@hardpixel.eu/themes/default-dark/close-active.svg

<svg height="16" width="16" xmlns="http://www.w3.org/2000/svg">
  <path d="m8 1a7 7 0 0 0 -7 7 7 7 0 0 0 7 7 7 7 0 0 0 7-7 7 7 0 0 0 -7-7zm-2.9980469 4h.75c.00778-.00009.0155965-.000345.0234375 0 .1911381.0084.382455.0964389.515625.234375l1.7109375 1.7109375 1.7324219-1.7109375c.1991407-.1728699.335074-.2291253.515625-.234375h.75v.75c0 .2148463-.025823.4129919-.1875.5625l-1.7109375 1.7109375 1.6874995 1.6875c.141085.141124.210933.3400935.210938.5390625v.75h-.75c-.198898-.000007-.397995-.069836-.5390625-.210938l-1.7089844-1.710937-1.7109375 1.710937c-.1410675.141138-.3401732.210938-.5390625.210938h-.75v-.75c-.0000022-.198962.0698499-.3979385.2109375-.5390625l1.7109375-1.6875-1.7109375-1.7109375c-.1579944-.1459682-.2273635-.3519436-.2109375-.5625z" fill="#ef2929"/>
</svg>

<?xml version="1.0" encoding="UTF-8" standalone="no"?>
<svg xmlns="http://www.w3.org/2000/svg" version="1.0" height="16" width="16">
  <path fill="#ef2929" d="M 8 1 A 7 7 0 0 0 1 8 A 7 7 0 0 0 8 15 A 7 7 0 0 0 15 8 A 7 7 0 0 0 8 1 z M 5.0019531 5 L 5.7519531 5 C 5.7597331 4.99991 5.7675496 4.999655 5.7753906 5 C 5.9665287 5.0084 6.1578456 5.0964389 6.2910156 5.234375 L 8.0019531 6.9453125 L 9.734375 5.234375 C 9.9335157 5.0615051 10.069449 5.0052497 10.25 5 L 11 5 L 11 5.75 C 11 5.9648463 10.974177 6.1629919 10.8125 6.3125 L 9.1015625 8.0234375 L 10.789062 9.7109375 C 10.930147 9.8520615 10.999995 10.051031 11 10.25 L 11 11 L 10.25 11 C 10.051102 10.999993 9.852005 10.930164 9.7109375 10.789062 L 8.0019531 9.078125 L 6.2910156 10.789062 C 6.1499481 10.9302 5.9508424 11 5.7519531 11 L 5.0019531 11 L 5.0019531 10.25 C 5.0019509 10.051038 5.071803 9.8520615 5.2128906 9.7109375 L 6.9238281 8.0234375 L 5.2128906 6.3125 C 5.0548962 6.1665318 4.9855271 5.9605564 5.0019531 5.75 L 5.0019531 5 z " />
</svg>
